icons/file-ppt.svg

<?xml version="1.0" standalone="no"?><!-- Generator: Gravit.io --><svg xmlns="http://www.w3.org/2000/svg" xmlns:xlink="http://www.w3.org/1999/xlink" width="96" height="96"><path d=" M 19.8 1 L 51.8 1 C 55.4 1 58.9 2.6 61.4 5.3 L 80.3 26.6 C 82.7 29.3 84 32.7 84 36.3 L 84 87.2 C 84 89.3 83.2 91.2 81.7 92.7 C 80.2 94.2 78.3 95 76.2 95 L 19.8 95 C 17.7 95 15.8 94.2 14.3 92.7 C 12.8 91.2 12 89.3 12 87.2 L 12 8.8 C 12 6.7 12.8 4.8 14.3 3.3 C 15.8 1.8 17.7 1 19.8 1 Z  M 20 9 L 51.8 9 C 53.2 9 54.5 9.6 55.4 10.6 L 74.4 31.9 C 75.4 33.1 76 34.7 76 36.2 L 76 87 L 20 87 L 20 9 Z  M 44 20 C 44 18.9 44.4 17.9 45.2 17.2 C 45.9 16.4 46.9 16 48 16 C 49.1 16 50.1 16.4 50.8 17.2 C 51.6 17.9 52 18.9 52 20 L 52 32 L 64 32 C 65.1 32 66.1 32.4 66.8 33.2 C 67.6 33.9 68 34.9 68 36 C 68 37.1 67.6 38.1 66.8 38.8 C 66.1 39.6 65.1 40 64 40 L 52 40 C 49.9 40 47.8 39.2 46.3 37.7 C 44.8 36.2 44 34.1 44 32 L 44 20 Z  M 57.335 55.17099999999999 Q 57.335 55.17099999999999 57.842 56.204499999999996 Q 58.349 57.238 58.349 59.772999999999996 Q 58.349 62.30799999999999 57.335 64.3555 Q 56.321 66.40299999999999 54.722 67.612 Q 51.485 70.108 48.013999999999996 70.108 L 43.138999999999996 70.108 L 43.138999999999996 74.515 Q 43.138999999999996 75.412 43.0805 75.8605 Q 43.022 76.309 42.71 76.894 Q 42.164 77.947 39.668 77.947 Q 36.938 77.947 36.47 76.50399999999999 Q 36.236000000000004 75.841 36.236000000000004 74.476 L 36.236000000000004 52.830999999999996 Q 36.236000000000004 51.934 36.2945 51.4855 Q 36.353 51.03699999999999 36.665 50.452 Q 37.211 49.399 39.707 49.399 L 48.053 49.399 Q 51.485 49.399 54.722 51.894999999999996 Q 56.321 53.104 57.335 55.17099999999999 Z  M 48.053 63.205 Q 49.223 63.205 50.354 62.346999999999994 Q 51.485 61.489 51.485 59.772999999999996 Q 51.485 58.057 50.354 57.1795 Q 49.223 56.30199999999999 48.013999999999996 56.30199999999999 L 43.138999999999996 56.30199999999999 L 43.138999999999996 63.205 L 48.053 63.205 Z " fill-rule="evenodd" fill="#454545" stroke-width="1" stroke="rgba(0,0,0,0)" stroke-linejoin="miter" stroke-linecap="square"/></svg>

<svg xmlns="http://www.w3.org/2000/svg" width="96" height="96"><path d="M19.8 1h32c3.6 0 7.1 1.6 9.6 4.3l18.9 21.3c2.4 2.7 3.7 6.1 3.7 9.7v50.9c0 2.1-.8 4-2.3 5.5-1.5 1.5-3.4 2.3-5.5 2.3H19.8c-2.1 0-4-.8-5.5-2.3-1.5-1.5-2.3-3.4-2.3-5.5V8.8c0-2.1.8-4 2.3-5.5C15.8 1.8 17.7 1 19.8 1zm.2 8h31.8c1.4 0 2.7.6 3.6 1.6l19 21.3c1 1.2 1.6 2.8 1.6 4.3V87H20V9zm24 11c0-1.1.4-2.1 1.2-2.8.7-.8 1.7-1.2 2.8-1.2 1.1 0 2.1.4 2.8 1.2.8.7 1.2 1.7 1.2 2.8v12h12c1.1 0 2.1.4 2.8 1.2.8.7 1.2 1.7 1.2 2.8 0 1.1-.4 2.1-1.2 2.8-.7.8-1.7 1.2-2.8 1.2H52c-2.1 0-4.2-.8-5.7-2.3-1.5-1.5-2.3-3.6-2.3-5.7V20zm13.335 35.171l.507 1.033q.507 1.034.507 3.569t-1.014 4.583q-1.014 2.047-2.613 3.256-3.237 2.496-6.708 2.496h-4.875v4.407q0 .897-.059 1.346-.058.448-.37 1.033-.546 1.053-3.042 1.053-2.73 0-3.198-1.443-.234-.663-.234-2.028V52.831q0-.897.059-1.346.058-.448.37-1.033.546-1.053 3.042-1.053h8.346q3.432 0 6.669 2.496 1.599 1.209 2.613 3.276zm-9.282 8.034q1.17 0 2.301-.858 1.131-.858 1.131-2.574 0-1.716-1.131-2.594-1.131-.877-2.34-.877h-4.875v6.903h4.914z" fill-rule="evenodd" fill="#454545" stroke="rgba(0,0,0,0)" stroke-linecap="square"/></svg>
